dist/img/temp/list-pa.svg

<svg width="26" height="27" viewBox="0 0 26 27" fill="none" xmlns="http://www.w3.org/2000/svg">
<g clip-path="url(#clip0_411_1537)">
<path d="M12 0.5C6.412 0.5 1.248 3.977 2.219 12.25C2.046 12.388 1.879 12.536 1.75 12.719C1.247 13.429 1 14.352 1 15.344C1 16.589 1.734 17.547 2.5 18.25C3.06 18.765 3.633 19.124 4.281 19.313C4.791 20.953 5.73 22.313 6.844 23.25C6.94311 23.3439 7.06038 23.4164 7.18859 23.4632C7.31681 23.5101 7.45325 23.5301 7.58951 23.5222C7.72577 23.5143 7.85898 23.4786 7.98091 23.4173C8.10285 23.3559 8.21095 23.2703 8.29853 23.1656C8.38612 23.0609 8.45135 22.9394 8.49021 22.8086C8.52907 22.6777 8.54073 22.5403 8.52447 22.4048C8.50821 22.2693 8.46438 22.1385 8.39568 22.0206C8.32698 21.9026 8.23486 21.8 8.125 21.719C7.119 20.872 6.278 19.741 5.969 18.281C5.91951 18.0605 5.79677 17.8632 5.6208 17.7214C5.44483 17.5796 5.22601 17.5015 5 17.5C5.123 17.5 4.354 17.25 3.844 16.781C3.334 16.312 3 15.726 3 15.344C3 14.88 3.111 14.492 3.25 14.188C3.38582 14.3422 3.56584 14.4508 3.76556 14.499C3.96529 14.5473 4.17502 14.5328 4.36625 14.4576C4.55747 14.3825 4.72089 14.2502 4.83429 14.0789C4.94768 13.9075 5.00554 13.7054 5 13.5V12.656C5.00147 12.6247 5.00147 12.5933 5 12.562C5.04 11.8493 5.13367 11.1933 5.281 10.594C6.66 10.12 7.808 10.889 9 7.375C10.74 12.548 15.246 9.589 18.344 9.438C18.708 10.323 18.934 11.363 19 12.562C18.9985 12.5933 18.9985 12.6247 19 12.656V13.5C19 13.7652 19.1054 14.0196 19.2929 14.2071C19.4804 14.3946 19.7348 14.5 20 14.5V16.969C19.566 17.31 19.085 17.5 19 17.5C18.774 17.5015 18.5552 17.5796 18.3792 17.7214C18.2032 17.8632 18.0805 18.0605 18.031 18.281C17.827 19.247 17.373 20.06 16.813 20.75C16.7289 20.8526 16.6658 20.9707 16.6273 21.0976C16.5889 21.2246 16.5758 21.3579 16.5888 21.4898C16.6019 21.6218 16.6408 21.75 16.7034 21.8669C16.7659 21.9839 16.8509 22.0874 16.9535 22.1715C17.0561 22.2556 17.1742 22.3187 17.3011 22.3572C17.4281 22.3956 17.5613 22.4087 17.6933 22.3957C17.8253 22.3826 17.9535 22.3437 18.0704 22.2811C18.1874 22.2186 18.2909 22.1336 18.375 22.031C18.975 21.292 19.373 20.325 19.688 19.313C20.2825 19.1638 20.8371 18.8863 21.313 18.5H22C21.755 19.781 21.304 20.748 20.844 21.438C20.194 22.413 19.634 22.754 19.594 22.781C19.565 22.796 19.21 22.991 18.187 23.219C17.407 23.392 16.284 23.577 14.781 23.656C14.58 22.541 13.412 21.688 12 21.688C10.446 21.688 9.187 22.723 9.187 24C9.187 25.277 10.447 26.313 12 26.313C12.971 26.313 13.838 25.897 14.344 25.281C16.194 25.207 17.6 24.995 18.563 24.781C19.749 24.518 20.343 24.219 20.343 24.219C20.3758 24.1998 20.4076 24.1788 20.438 24.156C20.438 24.156 21.33 23.551 22.156 22.313C22.824 21.311 23.486 19.858 23.719 17.938C24.447 17.393 24.906 16.502 24.906 15.5V13.5C24.906 11.843 23.656 10.5 22 10.5H21.844C21.848 3.502 17.174 0.5 12 0.5ZM20.656 10.375C20.686 10.417 20.721 10.455 20.75 10.5H20.656C20.648 10.459 20.665 10.416 20.656 10.375ZM8 12.5C7.46957 12.5 6.96086 12.7107 6.58579 13.0858C6.21071 13.4609 6 13.9696 6 14.5C6 15.0304 6.21071 15.5391 6.58579 15.9142C6.96086 16.2893 7.46957 16.5 8 16.5C8.53043 16.5 9.03914 16.2893 9.41421 15.9142C9.78929 15.5391 10 15.0304 10 14.5C10 13.9696 9.78929 13.4609 9.41421 13.0858C9.03914 12.7107 8.53043 12.5 8 12.5ZM16 12.5C15.4696 12.5 14.9609 12.7107 14.5858 13.0858C14.2107 13.4609 14 13.9696 14 14.5C14 15.0304 14.2107 15.5391 14.5858 15.9142C14.9609 16.2893 15.4696 16.5 16 16.5C16.5304 16.5 17.0391 16.2893 17.4142 15.9142C17.7893 15.5391 18 15.0304 18 14.5C18 13.9696 17.7893 13.4609 17.4142 13.0858C17.0391 12.7107 16.5304 12.5 16 12.5Z" fill="#FF9000"/>
</g>
<defs>
<clipPath id="clip0_411_1537">
<rect width="26" height="26" fill="white" transform="translate(0 0.5)"/>
</clipPath>
</defs>
</svg>

<svg width="26" height="27" fill="none" xmlns="http://www.w3.org/2000/svg"><g clip-path="url(#clip0_411_1537)"><path d="M12 .5C6.412.5 1.248 3.977 2.219 12.25c-.173.138-.34.286-.469.469-.503.71-.75 1.633-.75 2.625 0 1.245.734 2.203 1.5 2.906.56.515 1.133.874 1.781 1.063.51 1.64 1.449 3 2.563 3.937a.999.999 0 101.281-1.531c-1.006-.847-1.847-1.978-2.156-3.438A1 1 0 005 17.5c.123 0-.646-.25-1.156-.719-.51-.469-.844-1.055-.844-1.437 0-.464.111-.852.25-1.156A1 1 0 005 13.5v-.844a1.002 1.002 0 000-.094c.04-.713.134-1.369.281-1.968C6.66 10.12 7.808 10.889 9 7.375c1.74 5.173 6.246 2.214 9.344 2.063.364.885.59 1.925.656 3.124a.982.982 0 000 .094v.844a1 1 0 001 1v2.469c-.434.341-.915.531-1 .531a1 1 0 00-.969.781c-.204.966-.658 1.779-1.218 2.469a1.012 1.012 0 00.88 1.646 1.01 1.01 0 00.682-.365c.6-.739.998-1.706 1.313-2.718a4.201 4.201 0 001.625-.813H22c-.245 1.281-.696 2.248-1.156 2.938-.65.975-1.21 1.316-1.25 1.343-.029.015-.384.21-1.407.438-.78.173-1.903.358-3.406.437-.201-1.115-1.369-1.968-2.781-1.968-1.554 0-2.813 1.035-2.813 2.312s1.26 2.313 2.813 2.313c.971 0 1.838-.416 2.344-1.032 1.85-.074 3.256-.286 4.219-.5 1.186-.263 1.78-.562 1.78-.562.033-.02.065-.04.095-.063 0 0 .892-.605 1.718-1.843.668-1.002 1.33-2.455 1.563-4.375.728-.545 1.187-1.436 1.187-2.438v-2c0-1.657-1.25-3-2.906-3h-.156c.004-6.998-4.67-10-9.844-10zm8.656 9.875c.03.042.065.08.094.125h-.094c-.008-.041.009-.084 0-.125zM8 12.5a2 2 0 100 4 2 2 0 000-4zm8 0a2 2 0 100 4 2 2 0 000-4z" fill="#FF9000"/></g><defs><clipPath id="clip0_411_1537"><path fill="#fff" transform="translate(0 .5)" d="M0 0h26v26H0z"/></clipPath></defs></svg>
